X:1
T:Title
%%score { ( 1 3 ) | ( 2 4 ) }
L:1/8
M:4/4
K:G
V:1 treble nm="Grand Piano"
V:3 treble 
V:2 bass 
V:4 bass 
V:1
 z4 z2[Q:1/4=88] DD | G2 G2 G2 BA | G2 G2 G2 [DG][DF] | [CE]2 [EG]2 [EG]2 [DF][CE] | %4
[M:9/8] [B,D]2 B- B A2- ADD |[M:4/4] B2 B2 B2 AB | [Ec]2 [Ec]2 [CE]2 [EG][^DA] | %7
 [DB]2 [Fd]2 [Gd]2 [DB][DG] |[M:7/8] [DB]2 [CDA]2 [B,DG]3 |[M:1/4] [DB][DB] | %10
[M:4/4] [Ec]2 [Ec]2 [Ec]2 [EG][^DA] | [DB]2 [DB]2 [DB]2 [DB][Dc] | d3 ^c d2 BB | %13
 A2 [^CGA]2 [DFA]2[K:bass] [G,D][F,D] | [DB]2 [DB]2 [DB]2 [=Fd][Fd] | [Ed]2 [Ec]2 [EG]2 [^DA][DA] | %16
 .B2 d4- d>B |[M:3/4] F2 z2 z2 |] %18
V:2
 z4 z2 [G,B,][G,B,] | [G,B,D]2 [G,CE]2 [G,B,D]2[K:treble] [G,DG][G,CD] | %2
 [G,B,D]2 [G,CE]2 [G,B,D]2[K:bass] [B,,G,][B,,G,] | [C,G,]2 [C,C]2 [C,C]2 [C,G,][C,G,] | %4
[M:9/8] [G,,G,]2 [G,D]- [G,D] [D,F,D]2- [D,F,D][D,F,][D,F,] | %5
[M:4/4][K:treble] [G,D]2 [G,D]2 [G,D]2 [G,=F][G,F] | [C,G,]2 [C,G,]2 [C,G,]2 [C,G,][C,G,] | %7
 [D,G,]2 [C,A,]2 [B,,G,]2 [G,,G,][B,,G,] |[M:7/8] [D,G,]2 D,2 G,,3 |[M:1/4] G,G, | %10
[M:4/4] [C,G,]2 [C,G,]2 [C,G,]2 [C,G,][C,G,] | [G,,G,]2 [G,,G,]2 [G,,G,]2 [G,,G,][G,,A,] | %12
 [G,B,G]3 [G,_B,G] [G,=B,G]2 [G,DG][G,DG] | [F,D]2 E,2 D,C,B,,A,, | %14
 [G,,G,]2 [G,,G,]2 [G,,G,]2 [B,,G,][B,,G,] | [C,G,]2 [C,G,]2 [C,G,]2 [C,G,][C,G,] | %16
 .[D,G,D]2[K:treble] [G,B,G]4- [G,B,G]>[G,DG] |[M:3/4][K:bass] z2 D2 G,,2 |] %18
V:3
 x8 | x8 | x8 | x8 |[M:9/8] x9 |[M:4/4] x8 | x8 | x8 |[M:7/8] x7 |[M:1/4] x2 |[M:4/4] x8 | x8 | %12
 x8 | x6[K:bass] x2 | x8 | x8 | x8 |[M:3/4] [CA]4 [B,DG]2 |] %18
V:4
 x8 | x6[K:treble] x2 | x6[K:bass] x2 | x8 |[M:9/8] x9 |[M:4/4][K:treble] x8 | x8 | x8 | %8
[M:7/8] x7 |[M:1/4] x2 |[M:4/4] x8 | x8 | x8 | x8 | x8 | x8 | x2[K:treble] x6 | %17
[M:3/4][K:bass] D,4 z2 |] %18

